X:1
T:12 New Songs by some of the best and best-known British composers
T:Constancy
T:To H.R.H. The Princess Louise (Marchioness of Lorne) 
T:12 New Songs
T:Joseph Barnby
T:1. Constancy
T:Harold Boulton 
T:Creative Commons copyright waiver (CC0 1.0 Universal)
T:Creative Commons copyright waiver (CC0 1.0 Universal)
T:Creative Commons copyright waiver (CC0 1.0 Universal)
T:Creative Commons copyright waiver (CC0 1.0 Universal)
T:Creative Commons copyright waiver (CC0 1.0 Universal)
T:Creative Commons copyright waiver (CC0 1.0 Universal)
T:Creative Commons copyright waiver (CC0 1.0 Universal)
T:Creative Commons copyright waiver (CC0 1.0 Universal)
C:Joseph Barnby
Z:Harold Boulton (also series editor)
Z:Creative Commons copyright waiver (CC0 1.0 Universal)
%%score 1 2
L:1/8
M:12/8
K:Eb
V:1 treble nm="Voice"
V:2 bass nm="Piano"
V:1
"^NOTE to Transcriber and Reviewer\n:    Where there is no requirement to use both piano staves, you are recommended to\ninput the piano notes in the bass, and then move notes to the treble as needed using cross-staff notation (see example in m.1 below). \nThat way you can put the dynamics and hairpins in the bass and move them above the staff so they match the IMSLP score layout. \nIf you put dynamic markings in the treble, you would need invisible rests in the bass to position the pedal marks and hairpins.\n(Many thanks to @mike320 for this tip!)\n" z12 | %1
w: |
 z12 | z12 | z12 | z6 z2 z z2 G | G2 G G G G G2 G z2 z | z12 | z12 | d3 c c c =B3 z2 z | %9
w: |||My|heart that burns like the noon- tide|||flow'rs faint for the dew,|
 z6 z2 z z z B | B2 B !>!B A G (G2 FA) G z | z12 | z12 | z z d d c B =A2 G d c B | %14
w: I|long, I long for your com- * * ing,|||Oh! come in the cool, the cool of the|
 =A2 G z z z z2 z z z3/2 z/ | z12 | z12 | z3 c3- c G =A B3/2 A/ G | F3- F2 z z2 z z z z | z12 | %20
w: ev'n- ing,|||Home- * ward at night to the|nest. _||
 z12 | z2 z z z c d2 d __e e e | _d d d e2 e f2 z z3 | z12 | z12 | z12 | z6 z2 z z ^F2 | %27
w: |the moon- beams shim- mer and|glide through the leaves a- bove,||||Ah|
 G G G G2 G G G z z2 z | z12 | z12 | z z z z2 z z3 z c c | d d d c2 c (=B3 _B2) z | z12 | z12 | %34
w: me, but the mid- night pas- ses,|||For a|lov- er must hope or die; _|||
 z12 | z12 |] %36
w: ||
V:2
!p!!ped! (E,/B,/E/[I:staff -1] G/B/g/)!ped-up!!ped![I:staff +1] (E,/=B,/E/!<(![I:staff -1] G/=B/e/)!<)!!>(! (g/e/B/!>)!G/)[I:staff +1] (E/B,/) (E,/B,/E/[I:staff -1] G/B/g/)!ped-up! | %1
[I:staff +1] z12 | z12 | z12 | z12 | z12 | z12 | z12 | z12 | z12 | z12 | z12 | z12 | z12 | z12 | %15
 z12 | z12 | z12 | z12 | z12 | z12 | z12 | z12 | z12 | z12 | z12 | z12 | z12 | z12 | z12 | z12 | %31
 z12 | z12 | z12 | z12 | z12 |] %36

